dhis-2/dhis-support/dhis-support-system/src/main/resources/SVGs/syringe_outline.svg

<?xml version="1.0" encoding="UTF-8" standalone="no"?>
<!-- Created with Inkscape (http://www.inkscape.org/) -->
<svg id="svg8" xmlns:rdf="http://www.w3.org/1999/02/22-rdf-syntax-ns#" xmlns="http://www.w3.org/2000/svg" height="48" viewBox="0 0 12.7 12.7" width="48" version="1.1" xmlns:cc="http://creativecommons.org/ns#" xmlns:dc="http://purl.org/dc/elements/1.1/">
 <title id="title4753">UIO-icon</title>
 <metadata id="metadata5">
  <rdf:RDF>
   <cc:Work rdf:about="">
    <dc:format>image/svg+xml</dc:format>
    <dc:type rdf:resource="http://purl.org/dc/dcmitype/StillImage"/>
    <dc:title>UIO-icon</dc:title>
    <dc:creator>
     <cc:Agent>
      <dc:title>Joaquín Urbano</dc:title>
     </cc:Agent>
    </dc:creator>
    <dc:rights>
     <cc:Agent>
      <dc:title>GPL</dc:title>
     </cc:Agent>
    </dc:rights>
   </cc:Work>
  </rdf:RDF>
 </metadata>
 <path id="rect910" d="m22.881 4.0469c-0.068631-0.0056846-0.13953 0.00090482-0.21094 0.021484l-5.0312 1.4473c-0.28565 0.082394-0.45678 0.35642-0.38281 0.61328 0.003433 0.011926 0.013234 0.019841 0.017578 0.03125l1.582-0.45117c0.65425 2.1622 1.3179 4.5355 1.9297 6.6074l-0.76172 0.21875-0.49414 0.14258-0.49414 0.14258-0.15039 0.042969-0.55469 0.16016-2.1387 0.61719c0.003082 0.02489-0.001307 0.049332 0.005859 0.074219 0.054876 0.19063 0.2175 0.31939 0.40234 0.34375l1.7305-0.5 0.39648-0.11328 0.011719 0.041016 0.001953-0.001953 0.29297 1.0117 0.31445 1.0898 0.77148 2.6797 0.050781 0.17773 3.4609 12.064c0.034242 0.1166 0.053502 0.15487 0.074219 0.21484 0.41556 1.4432 1.7616 2.3522 3.1973 2.2715 0.005329 0.077858-0.002969 0.15223 0.019531 0.23047 0.14819 0.51466 0.63191 0.8185 1.1445 0.7832l2.7793 9.6562c0.073946 0.25701 0.34083 0.40404 0.59766 0.33008 0.25681-0.0737 0.40208-0.33873 0.32812-0.5957l-2.7832-9.668c0.42085-0.25361 0.64666-0.7503 0.50391-1.2461-0.021014-0.072945-0.06791-0.12873-0.10156-0.19336 1.2895-0.68398 1.9675-2.1915 1.5469-3.6523l-1.9414-6.7383-1.4902-5.1758c-0.39183-1.4087-0.81887-2.851-1.2305-4.2695l-0.172-0.599-0.143-0.494 1.662-0.478 0.475-0.137c0.141-0.119 0.208-0.313 0.154-0.502-0.007265-0.025234-0.024365-0.043399-0.035156-0.066406-0.19701 0.056752-0.39577 0.11482-0.59375 0.17188-1.4289 0.4118-2.8775 0.82902-4.2871 1.2344l-0.131-0.389h-0.001953l-0.26172-0.90625-1.2656-4.3613-0.274-0.943 1.924-0.5489c-0.003-0.0176 0.001-0.0352-0.004-0.0527-0.055-0.1927-0.233-0.3189-0.439-0.3359zm-1.973 1.0781l0.27344 0.94336 1.2168 4.2031 0.044922 0.1543 0.26172 0.90625 0.12109 0.41016-1.5605 0.45117-0.11523-0.40039-1.5469-5.3301 0.005859-0.0019531-0.25977-0.89258zm4.5566 6.3789 1.3906 4.7969-2.0059 0.57812-1.3809-4.7988 1.502-0.43359zm-2.4883 0.7168 1.3789 4.8027-0.49414 0.14258v-0.001953l-0.57031 0.16406-0.060547 0.017578-0.43359 0.125-1.377-4.7988c0.53127-0.14244 1.0343-0.29059 1.5566-0.45117zm-2.057 0.591l1.3828 4.8008-1.6895 0.48633-1.3906-4.7988 0.44922-0.12891 0.001953 0.005859 0.009766-0.001953-0.001953-0.005859zm6.0625 3.9883 0.14258 0.49219c0.42748 1.4395 0.24882 0.82838 0.45508 1.5449l-1.4609 0.43359c-0.25681 0.074078-0.40208 0.33866-0.32812 0.5957 0.07395 0.25701 0.33887 0.40404 0.5957 0.33008l1.4551-0.44922 0.076172 0.25 0.042969 0.16016-6.5312 0.81641-0.68164-2.377zm1.1055 3.8145 0.085938 0.30078-1.4609 0.47852c-0.25681 0.074079-0.40208 0.34069-0.32812 0.59766 0.07395 0.25701 0.33887 0.40247 0.5957 0.32812l1.4551-0.5 0.33203 1.1738-1.4609 0.46094c-0.25682 0.074079-0.40208 0.33866-0.32812 0.5957 0.073946 0.25701 0.33887 0.40404 0.5957 0.33008l1.4766-0.47266 0.30469 1.1523-1.4551 0.45508c-0.25682 0.073701-0.40404 0.33873-0.33008 0.5957 0.073946 0.25701 0.34084 0.40607 0.59766 0.33203l1.4766-0.46094 0.32812 1.1719-1.4785 0.42188c-0.25681 0.074078-0.40404 0.3387-0.33008 0.5957 0.073946 0.25701 0.34084 0.40603 0.59766 0.33203l1.4746-0.41797 0.17383 0.56836c0.43181 1.4366-0.15623 2.3099-1.0371 3.0352-0.77316 0.52865-1.2599 0.71457-2.459 0.78125-0.82387 0.051524-1.6871-0.22438-2.3301-1.0781-0.19403-0.23829-0.34628-0.72029-0.45117-1.002l-2.5664-8.9434zm-4.457 1.627c-0.046332 0.00098164-0.092319 0.008208-0.13672 0.021484-0.27331 0.078377-0.4315 0.3633-0.35352 0.63672 0.078351 0.2743 0.36463 0.43276 0.63867 0.35352 0.011151-0.002237 0.022225-0.004842 0.033203-0.007813v-0.003906c0.25436-0.092887 0.39344-0.36678 0.31836-0.62695-0.063927-0.22256-0.26845-0.37516-0.5-0.37305zm2.0938 2.1719c-0.035056 0.0004716-0.069883 0.005729-0.10352 0.015625-0.20443 0.058759-0.3225 0.27215-0.26367 0.47656 0.05873 0.20543 0.27348 0.32376 0.47852 0.26367 0.20443-0.058759 0.3225-0.27215 0.26367-0.47656-0.047696-0.16702-0.20131-0.28144-0.375-0.2793zm-1.127 2.0508c-0.033757 0.00067853-0.067266 0.005935-0.099609 0.015625-0.19778 0.05683-0.31224 0.26303-0.25586 0.46094 0.057679 0.19699 0.26361 0.31043 0.46094 0.25391 0.009211-0.002256 0.018332-0.004862 0.027344-0.007813 0.18372-0.067279 0.2843-0.26502 0.23047-0.45312-0.046645-0.16136-0.19533-0.27167-0.36328-0.26953zm2.0195 1.6348c-0.028396 0.00009032-0.056648 0.004033-0.083984 0.011719-0.16667 0.047982-0.26287 0.22201-0.21484 0.38867 0.047982 0.16667 0.22201 0.26287 0.38867 0.21484 0.16667-0.047982 0.26287-0.22201 0.21484-0.38867-0.039223-0.13533-0.16379-0.22796-0.30469-0.22656zm-0.19141 2.1699c-0.007189 0.00029808-0.014359 0.00095069-0.021484 0.001953-0.011913 0.001636-0.023672 0.004247-0.035156 0.007813-0.11658 0.033334-0.18396 0.15497-0.15039 0.27148 0.034184 0.11579 0.15555 0.18215 0.27148 0.14844 0.004598-0.001154 0.009158-0.002457 0.013672-0.003906 0.10741-0.039749 0.16612-0.15547 0.13477-0.26562-0.02667-0.095325-0.11391-0.16095-0.21289-0.16016zm1.407 0.606c-0.007189 0.00029808-0.014359 0.0009509-0.021484 0.001953-0.012572 0.001527-0.024988 0.004141-0.037109 0.007813-0.11579 0.034184-0.18215 0.15555-0.14844 0.27148 0.034199 0.11481 0.15422 0.18091 0.26953 0.14844 0.005254-0.00111 0.010466-0.002413 0.015625-0.003906 0.10741-0.039749 0.16612-0.15547 0.13477-0.26562-0.027-0.095-0.114-0.161-0.213-0.16z" transform="scale(.26458)" stroke-width="3.7795" fill="#333"/>
</svg>

<svg width="48" height="48" viewBox="0 0 48 48" fill="none" xmlns="http://www.w3.org/2000/svg">
<path d="M22.8807 4.04688C22.812 4.04119 22.7411 4.04778 22.6697 4.06836L17.6386 5.51564C17.3529 5.59803 17.1818 5.87206 17.2558 6.12891C17.2592 6.14084 17.269 6.14875 17.2734 6.16016L18.8553 5.709C19.5096 7.87117 20.1732 10.2444 20.785 12.3163L20.0233 12.5351L19.5292 12.6776L19.035 12.8202L18.8846 12.8632L18.33 13.0233L16.1913 13.6405C16.1944 13.6654 16.19 13.6899 16.1971 13.7147C16.252 13.9054 16.4146 14.0341 16.5995 14.0585L18.33 13.5585L18.7264 13.4452L18.7382 13.4862L18.7401 13.4843L19.0331 14.496L19.3475 15.5858L20.119 18.2654L20.1698 18.4432L23.6306 30.507C23.6649 30.6236 23.6841 30.6619 23.7048 30.7218C24.1204 32.165 25.4664 33.074 26.9021 32.9933C26.9074 33.0712 26.8991 33.1455 26.9216 33.2238C27.0698 33.7384 27.5535 34.0423 28.0661 34.007L30.8454 43.663C30.9193 43.9201 31.1862 44.0671 31.443 43.9931C31.6998 43.9194 31.8451 43.6544 31.7712 43.3974L28.988 33.7295C29.4088 33.4759 29.6346 32.9793 29.4919 32.4835C29.4709 32.4105 29.424 32.3547 29.3903 32.2901C30.6798 31.6061 31.3578 30.0986 30.9372 28.6379L28.9958 21.8996L27.5057 16.7239C27.1138 15.3152 26.6868 13.8729 26.2752 12.4545L26.1032 11.8555L25.9602 11.3615L27.6222 10.8835L28.0971 10.7465C28.2381 10.6275 28.3051 10.4335 28.2511 10.2445C28.2439 10.2192 28.2268 10.2011 28.216 10.1781C28.019 10.2348 27.8202 10.2929 27.6222 10.35C26.1934 10.7618 24.7448 11.179 23.3352 11.5843L23.2042 11.1953H23.2022L22.9405 10.2891L21.6749 5.92786L21.401 4.98487L23.3249 4.43598C23.3219 4.41838 23.3259 4.40078 23.3209 4.38328C23.2659 4.19058 23.0879 4.06438 22.8819 4.04738L22.8807 4.04688ZM20.9077 5.12496L21.1811 6.06831L22.3979 10.2714L22.4428 10.4257L22.7045 11.3319L22.8256 11.742L21.2651 12.1932L21.1499 11.7928L19.603 6.4628L19.6089 6.46084L19.3491 5.56827L20.9077 5.12496ZM25.4642 11.5038L26.8548 16.3006L24.8489 16.8787L23.468 12.08L24.97 11.6464L25.4642 11.5038ZM22.976 12.2206L24.3548 17.0232L23.8607 17.1658V17.1638L23.2904 17.3279L23.2299 17.3455L22.7963 17.4705L21.4193 12.6717C21.9505 12.5293 22.4536 12.3811 22.9759 12.2206H22.976ZM20.919 12.8116L22.3018 17.6123L20.6123 18.0986L19.2217 13.2999L19.6709 13.171L19.6729 13.1768L19.6826 13.1749L19.6807 13.169L20.919 12.8116ZM26.9814 16.7998L27.124 17.292C27.5515 18.7315 27.3728 18.1204 27.5791 18.8369L26.1182 19.2705C25.8614 19.3445 25.7161 19.6091 25.7901 19.8662C25.864 20.1232 26.1289 20.2702 26.3857 20.1962L27.8408 19.747L27.917 19.997L27.96 20.1572L21.4289 20.9736L20.7472 18.5966L26.9814 16.7998ZM28.0869 20.6143L28.1728 20.915L26.7119 21.3936C26.4551 21.4676 26.3099 21.7342 26.3838 21.9912C26.4578 22.2482 26.7227 22.3937 26.9795 22.3193L28.4346 21.8193L28.7666 22.9931L27.3057 23.4541C27.0489 23.5281 26.9037 23.7927 26.9776 24.0497C27.0516 24.3068 27.3165 24.4538 27.5733 24.3798L29.0499 23.9072L29.3546 25.0595L27.8995 25.5145C27.6427 25.5882 27.4955 25.8533 27.5694 26.1102C27.6434 26.3672 27.9103 26.5163 28.1671 26.4422L29.6437 25.9813L29.9718 27.1532L28.4933 27.5751C28.2365 27.6491 28.0893 27.9138 28.1632 28.1708C28.2372 28.4278 28.5041 28.5768 28.7609 28.5028L30.2355 28.0848L30.4093 28.6532C30.8411 30.0898 30.2531 30.963 29.3722 31.6883C28.599 32.217 28.1123 32.4029 26.9132 32.4696C26.0894 32.5211 25.2262 32.2452 24.5832 31.3915C24.3891 31.1532 24.2369 30.6712 24.132 30.3895L21.5656 21.4462L28.0869 20.6143ZM23.6299 22.2412C23.5836 22.2422 23.5376 22.2495 23.4932 22.2627C23.2199 22.3411 23.0617 22.626 23.1397 22.8994C23.2181 23.1737 23.5043 23.3322 23.7784 23.253C23.7895 23.2507 23.8006 23.2481 23.8116 23.2451V23.2412C24.0659 23.1484 24.205 22.8745 24.1299 22.6143C24.066 22.3917 23.8615 22.2391 23.6299 22.2413V22.2412ZM25.7237 24.4131C25.6887 24.4136 25.6538 24.4189 25.6202 24.4287C25.4158 24.4875 25.2977 24.7009 25.3565 24.9053C25.4153 25.1107 25.63 25.2291 25.835 25.169C26.0395 25.1102 26.1575 24.8968 26.0987 24.6924C26.051 24.5254 25.8974 24.411 25.7237 24.4131ZM24.5967 26.4639C24.563 26.4646 24.5295 26.4698 24.4971 26.4795C24.2993 26.5363 24.1849 26.7425 24.2413 26.9405C24.2989 27.1374 24.5049 27.2509 24.7022 27.1944C24.7114 27.1921 24.7205 27.1895 24.7295 27.1865C24.9133 27.1193 25.0138 26.9215 24.96 26.7334C24.9134 26.5721 24.7647 26.4618 24.5967 26.4639ZM26.6162 28.0987C26.5878 28.0988 26.5596 28.1027 26.5322 28.1104C26.3656 28.1584 26.2694 28.3324 26.3174 28.4991C26.3654 28.6657 26.5394 28.7619 26.7061 28.7139C26.8727 28.6659 26.9689 28.4919 26.9209 28.3252C26.8817 28.1899 26.7571 28.0973 26.6162 28.0987ZM26.4248 30.2685C26.4176 30.2688 26.4104 30.2695 26.4033 30.2705C26.3914 30.2721 26.3796 30.2747 26.3682 30.2783C26.2516 30.3116 26.1842 30.4333 26.2178 30.5498C26.252 30.6656 26.3733 30.7319 26.4892 30.6982C26.4938 30.6971 26.4984 30.6958 26.5029 30.6943C26.6103 30.6546 26.669 30.5389 26.6377 30.4287C26.611 30.3334 26.5238 30.2678 26.4248 30.2685ZM27.8318 30.8745C27.8246 30.8748 27.8174 30.8755 27.8103 30.8765C27.7977 30.878 27.7853 30.8806 27.7732 30.8843C27.6574 30.9185 27.591 31.0399 27.6248 31.1558C27.6589 31.2706 27.779 31.3367 27.8943 31.3042C27.8995 31.3031 27.9047 31.3018 27.9099 31.3003C28.0173 31.2606 28.076 31.1448 28.0447 31.0347C28.0177 30.9397 27.9307 30.8737 27.8317 30.8747L27.8318 30.8745Z" fill="#333333"/>
</svg>
